X: 38936
T: Susan MacLeod
R: strathspey
M: 4/4
K: Amajor
|:a>f|e>fe>d d<cc>B|A>Bc<A c<e e2|1 f>ga>e f<aa>f|
e>f (3edc B2:|2 a>ef<a e>ad<a|c>aB<a A2||
|:c>a|(3eee e>f c<ee>c|A>B (3cBA c<e e2|1 (3fff f>e d<ff>g|
a>ef<a e<a:|2 a>ef<a e>ad<a|c>aB<a A2||
|:a>f|e>A (3AAA A>Bc<A|c<A (3AAA c<e e2|1 f>B (3BBB B>cd<c|
(3BBB d>e f<a:|2 a>ef<a e>ad<a|c>aB<a A2||
|:c>a|f<aa>c c<e (3eee|A>Bc<A c<e (3eee|1 f<aa>d d<ff>g|
a>ef<a f2:|2 a>ef<a e>ad<a|c>aB<a A2||

